X:26
T:Love for Love. Danc'd in the Play.
T:John Malchair's Third Collection of Tunes
%%VWML:Malchair-3619-p26
F:https://www.vwml.org/record/Malchair/3619/p26
F:www.vwml.org/topics/historic-dance-and-tune-books/Malchair
Z:Eric Conrad Jan 2020
M:C|
L:1/8
K:G
d2 | g2G2 Bcd2 | d3 e_f2A2 | ABc2 c3d |efge d3c |
 BcdB A3G | FGAB (AF)(ED) | D6 ||
A2 | ABD2 F2A2 | BcE2 G2B2 | e2fg B2e2 | e6 fg |a2A2 A3B | 
cBcd e3_f | e2E2 E3F | GFGA B2d2 |g2G2 Bcd2 | G6 |]
W:
T: Vicar of Taunton Dean.
T:John Malchair's Third Collection of Tunes
F:https://www.vwml.org/record/Malchair/3619/p26
F:www.vwml.org/topics/historic-dance-and-tune-books/Malchair
% Z:Eric Conrad Jan 2020
M:6/4
L:1/4
K:Gm
D | G2A BAF | G2B cBA | GAB B2A | Gd2- d2 ||
d/e/ | f2e d2c | d2c B2A/G/ | ABc c2B | Bc2- c2c | 
d>ed c>BA | B>AG d3 | c>Bc c>BA | Gd2 A2G |
^FD2 BG2 | d3- d2d | c>Bc c>BA | Gd2- d2 |]
W:
T: King of Poland.
T:John Malchair's Third Collection of Tunes
F:https://www.vwml.org/record/Malchair/3619/p26
F:www.vwml.org/topics/historic-dance-and-tune-books/Malchair
M:6/4
L:1/4
K:Gm
B2G BAc | dcd G2A | Bcd f2d | dcd G2 ||
g/a/ | b>ag ^f>=ef | g2G G2A | B>cd f2d | f2d c>BA |
B>cd g2d | B>AG G2 |]



